src/components/pages/careers/icons/health.svg

<svg width="64" height="65" viewBox="0 0 64 65" fill="none" xmlns="http://www.w3.org/2000/svg">
<g filter="url(#filter0_dd_2974_21262)">
<path d="M15.5 37.7461H23V45.2461C23 46.4396 23.4741 47.5842 24.318 48.4281C25.1619 49.272 26.3065 49.7461 27.5 49.7461H36.5C37.6935 49.7461 38.8381 49.272 39.682 48.4281C40.5259 47.5842 41 46.4395 41 45.2461V37.7461H48.5C49.6935 37.7461 50.8381 37.272 51.682 36.4281C52.5259 35.5842 53 34.4396 53 33.2461V24.2461C53 23.0526 52.5259 21.908 51.682 21.0641C50.8381 20.2202 49.6935 19.7461 48.5 19.7461H41V12.2461C41 11.0526 40.5259 9.90803 39.682 9.06411C38.8381 8.2202 37.6935 7.74609 36.5 7.74609H27.5C26.3065 7.74609 25.1619 8.2202 24.318 9.06411C23.4741 9.90802 23 11.0526 23 12.2461V19.7461H15.5C14.3065 19.7461 13.1619 20.2202 12.318 21.0641C11.4741 21.908 11 23.0526 11 24.2461V33.2461C11 34.4396 11.4741 35.5842 12.318 36.4281C13.1619 37.272 14.3065 37.7461 15.5 37.7461Z" fill="white" stroke="white" stroke-width="6" stroke-linecap="round" stroke-linejoin="round"/>
<path d="M26 34.7461H15.5C15.1022 34.7461 14.7206 34.5881 14.4393 34.3068C14.158 34.0255 14 33.6439 14 33.2461V24.2461C14 23.8483 14.158 23.4667 14.4393 23.1854C14.7206 22.9041 15.1022 22.7461 15.5 22.7461H26V12.2461C26 11.8483 26.158 11.4667 26.4393 11.1854C26.7206 10.9041 27.1022 10.7461 27.5 10.7461H36.5C36.8978 10.7461 37.2794 10.9041 37.5607 11.1854C37.842 11.4667 38 11.8483 38 12.2461V22.7461H48.5C48.8978 22.7461 49.2794 22.9041 49.5607 23.1854C49.842 23.4667 50 23.8483 50 24.2461V33.2461C50 33.6439 49.842 34.0255 49.5607 34.3068C49.2794 34.5881 48.8978 34.7461 48.5 34.7461H38V45.2461C38 45.6439 37.842 46.0255 37.5607 46.3068C37.2794 46.5881 36.8978 46.7461 36.5 46.7461H27.5C27.1022 46.7461 26.7206 46.5881 26.4393 46.3068C26.158 46.0255 26 45.6439 26 45.2461V34.7461Z" stroke="#171717" stroke-width="2" stroke-linecap="round" stroke-linejoin="round"/>
<path d="M13.9443 25.2676V28.242C14.2238 28.6612 13.5276 29.6273 13.6343 30.1368C13.809 30.9715 14.1101 31.7342 14.4037 32.5312C14.8436 33.7253 15.6523 34.5552 16.9301 34.7763C18.5619 35.0587 20.2089 34.9847 21.8453 35.2185C23.1674 35.4073 24.3716 35.2647 24.6703 36.8779C25.0511 38.934 25.0033 41.2033 25.0033 43.2859C25.0033 44.1189 25.1785 45.3296 25.5775 46.0708C26.1181 47.0747 27.3729 47.2288 28.3796 47.5235C30.9175 48.2663 33.5053 47.6629 36.0566 47.3627L36.0797 47.36C36.392 47.3233 36.719 47.2849 37.0155 47.179C37.3825 47.0479 37.3596 46.5642 37.4577 46.2373C37.6111 45.7258 37.716 45.1312 37.716 44.5951C37.716 44.197 37.4343 43.8406 37.406 43.4352C37.3471 42.5916 37.0563 41.7806 37.004 40.9317C36.9718 40.4077 36.9926 39.8776 36.9926 39.3527C36.9926 38.3476 36.7502 36.9183 37.1993 35.9936C37.8391 34.6764 39.641 34.6883 40.8799 34.7591C42.3015 34.8403 43.7264 34.937 45.1519 34.805C45.8688 34.7386 46.5966 34.6012 47.3051 34.5466C47.8604 34.5039 48.3442 33.8528 48.8784 33.8232C49.2538 33.8023 49.3554 33.5323 49.4469 33.203C49.9441 31.413 50.2722 29.269 49.9924 27.4151C49.8135 26.2302 49.5911 24.9881 48.9358 23.9585C48.5438 23.3423 48.1373 23.4492 47.4774 23.2292C46.9954 23.0686 46.3328 23.1776 45.8294 23.1776C45.0834 23.1776 44.3487 23.2705 43.6073 23.2809C42.0079 23.3034 40.4065 23.2809 38.807 23.2809C37.6431 23.2809 37.406 23.1104 37.406 21.9373C37.406 20.1725 38.0409 18.6003 38.2328 16.8729C38.4858 14.5958 38.4903 11.6895 35.7982 10.9357C34.3594 10.5328 32.8791 10.2235 31.3884 10.0744C29.8586 9.92142 28.0103 9.62554 26.6168 10.4132C26.0405 10.7389 26.0349 11.5055 25.8761 12.0726C25.6742 12.7938 25.6034 13.5429 25.4168 14.266C25.0446 15.7082 25.3134 17.5002 25.3134 18.9917C25.3134 19.879 25.5554 21.2119 25.1871 22.0406C24.8894 22.7104 23.4521 22.2474 22.8788 22.2474C20.0941 22.2474 17.3622 22.0005 14.7769 23.1316C14.0708 23.4405 13.9443 24.6071 13.9443 25.2676Z" stroke="#171717" stroke-width="2" stroke-linecap="round"/>
</g>
<defs>
<filter id="filter0_dd_2974_21262" x="0" y="0.746094" width="64" height="64" filterUnits="userSpaceOnUse" color-interpolation-filters="sRGB">
<feFlood flood-opacity="0" result="BackgroundImageFix"/>
<feColorMatrix in="SourceAlpha" type="matrix" values="0 0 0 0 0 0 0 0 0 0 0 0 0 0 0 0 0 0 127 0" result="hardAlpha"/>
<feOffset dy="2"/>
<feGaussianBlur stdDeviation="1"/>
<feComposite in2="hardAlpha" operator="out"/>
<feColorMatrix type="matrix" values="0 0 0 0 0 0 0 0 0 0 0 0 0 0 0 0 0 0 0.02 0"/>
<feBlend mode="normal" in2="BackgroundImageFix" result="effect1_dropShadow_2974_21262"/>
<feColorMatrix in="SourceAlpha" type="matrix" values="0 0 0 0 0 0 0 0 0 0 0 0 0 0 0 0 0 0 127 0" result="hardAlpha"/>
<feOffset dy="4"/>
<feGaussianBlur stdDeviation="4"/>
<feComposite in2="hardAlpha" operator="out"/>
<feColorMatrix type="matrix" values="0 0 0 0 0 0 0 0 0 0 0 0 0 0 0 0 0 0 0.06 0"/>
<feBlend mode="normal" in2="effect1_dropShadow_2974_21262" result="effect2_dropShadow_2974_21262"/>
<feBlend mode="normal" in="SourceGraphic" in2="effect2_dropShadow_2974_21262" result="shape"/>
</filter>
</defs>
</svg>

<svg xmlns="http://www.w3.org/2000/svg" width="64" height="65" fill="none"><g stroke-linecap="round" filter="url(#a)"><path fill="#fff" stroke="#fff" stroke-linejoin="round" stroke-width="6" d="M15.5 37.746H23v7.5a4.5 4.5 0 0 0 4.5 4.5h9a4.5 4.5 0 0 0 4.5-4.5v-7.5h7.5a4.5 4.5 0 0 0 4.5-4.5v-9a4.5 4.5 0 0 0-4.5-4.5H41v-7.5a4.5 4.5 0 0 0-4.5-4.5h-9a4.5 4.5 0 0 0-4.5 4.5v7.5h-7.5a4.5 4.5 0 0 0-4.5 4.5v9a4.5 4.5 0 0 0 4.5 4.5Z"/><path stroke="#171717" stroke-linejoin="round" stroke-width="2" d="M26 34.746H15.5a1.5 1.5 0 0 1-1.5-1.5v-9a1.5 1.5 0 0 1 1.5-1.5H26v-10.5a1.5 1.5 0 0 1 1.5-1.5h9a1.5 1.5 0 0 1 1.5 1.5v10.5h10.5a1.5 1.5 0 0 1 1.5 1.5v9a1.5 1.5 0 0 1-1.5 1.5H38v10.5a1.5 1.5 0 0 1-1.5 1.5h-9a1.5 1.5 0 0 1-1.5-1.5v-10.5Z"/><path stroke="#171717" stroke-width="2" d="M13.944 25.268v2.974c.28.42-.416 1.385-.31 1.895.175.834.476 1.597.77 2.394.44 1.194 1.248 2.024 2.526 2.245 1.632.283 3.279.209 4.915.442 1.322.19 2.527.047 2.825 1.66.381 2.056.333 4.325.333 6.408 0 .833.175 2.044.575 2.785.54 1.004 1.795 1.158 2.802 1.453 2.538.742 5.125.139 7.677-.161l.023-.003c.312-.037.639-.075.936-.181.367-.131.344-.615.442-.942a5.958 5.958 0 0 0 .258-1.642c0-.398-.282-.754-.31-1.16-.059-.843-.35-1.654-.402-2.503-.032-.524-.011-1.054-.011-1.58 0-1.004-.243-2.434.206-3.358.64-1.318 2.442-1.306 3.68-1.235 1.422.081 2.847.178 4.273.046.717-.066 1.445-.204 2.153-.258.555-.043 1.04-.694 1.573-.724.376-.02.477-.29.569-.62.497-1.79.825-3.934.545-5.788-.178-1.185-.4-2.427-1.056-3.456-.392-.617-.799-.51-1.459-.73-.482-.16-1.144-.051-1.648-.051-.746 0-1.48.092-2.222.103-1.6.022-3.2 0-4.8 0-1.164 0-1.401-.17-1.401-1.344 0-1.765.635-3.337.827-5.064.253-2.277.257-5.184-2.435-5.937-1.439-.403-2.919-.713-4.41-.862-1.53-.153-3.378-.448-4.771.34-.576.325-.582 1.091-.74 1.659-.203.72-.274 1.47-.46 2.193-.372 1.442-.104 3.234-.104 4.726 0 .887.242 2.22-.126 3.049-.298.67-1.735.206-2.308.206-2.785 0-5.517-.247-8.102.885-.706.308-.833 1.475-.833 2.136Z"/></g><defs><filter id="a" width="64" height="64" x="0" y=".746" color-interpolation-filters="sRGB" filterUnits="userSpaceOnUse"><feFlood flood-opacity="0" result="BackgroundImageFix"/><feColorMatrix in="SourceAlpha" result="hardAlpha" values="0 0 0 0 0 0 0 0 0 0 0 0 0 0 0 0 0 0 127 0"/><feOffset dy="2"/><feGaussianBlur stdDeviation="1"/><feComposite in2="hardAlpha" operator="out"/><feColorMatrix values="0 0 0 0 0 0 0 0 0 0 0 0 0 0 0 0 0 0 0.02 0"/><feBlend in2="BackgroundImageFix" result="effect1_dropShadow_2974_21262"/><feColorMatrix in="SourceAlpha" result="hardAlpha" values="0 0 0 0 0 0 0 0 0 0 0 0 0 0 0 0 0 0 127 0"/><feOffset dy="4"/><feGaussianBlur stdDeviation="4"/><feComposite in2="hardAlpha" operator="out"/><feColorMatrix values="0 0 0 0 0 0 0 0 0 0 0 0 0 0 0 0 0 0 0.06 0"/><feBlend in2="effect1_dropShadow_2974_21262" result="effect2_dropShadow_2974_21262"/><feBlend in="SourceGraphic" in2="effect2_dropShadow_2974_21262" result="shape"/></filter></defs></svg>
